src/assets/img/javascript.svg

<?xml version="1.0" encoding="UTF-8" standalone="no" ?>
<!DOCTYPE svg PUBLIC "-//W3C//DTD SVG 1.1//EN" "http://www.w3.org/Graphics/SVG/1.1/DTD/svg11.dtd">
<svg xmlns="http://www.w3.org/2000/svg" xmlns:xlink="http://www.w3.org/1999/xlink" version="1.1" width="1080" height="1080" viewBox="0 0 1080 1080" xml:space="preserve">
<desc>Created with Fabric.js 5.2.4</desc>
<defs>
</defs>
<g transform="matrix(1 0 0 1 540 540)" id="c774d1e8-5994-4e63-ac6c-4e15b2076c0e"  >
<rect style="stroke: none; stroke-width: 1; stroke-dasharray: none; stroke-linecap: butt; stroke-dashoffset: 0; stroke-linejoin: miter; stroke-miterlimit: 4; fill: rgb(255,255,255); fill-rule: nonzero; opacity: 1; visibility: hidden;" vector-effect="non-scaling-stroke"  x="-540" y="-540" rx="0" ry="0" width="1080" height="1080" />
</g>
<g transform="matrix(1 0 0 1 540 540)" id="800c393a-a7fc-466d-8f4b-fe3e411e37c0"  >
</g>
<g transform="matrix(1 0 0 1 540 540)"  >
<g style="" vector-effect="non-scaling-stroke"   >
		<g transform="matrix(1 0 0 1 -450.69 -450.69)"  >
<rect style="stroke: none; stroke-width: 1; stroke-dasharray: none; stroke-linecap: butt; stroke-dashoffset: 0; stroke-linejoin: miter; stroke-miterlimit: 4; fill: rgb(255,255,255); fill-rule: nonzero; opacity: 1;" vector-effect="non-scaling-stroke"  x="-50" y="-50" rx="0" ry="0" width="100" height="100" />
</g>
		<g transform="matrix(13.54 0 0 13.54 0 0)"  >
<path style="stroke: none; stroke-width: 1; stroke-dasharray: none; stroke-linecap: butt; stroke-dashoffset: 0; stroke-linejoin: miter; stroke-miterlimit: 4; fill: rgb(247,224,37); fill-rule: nonzero; opacity: 1;" vector-effect="non-scaling-stroke"  transform=" translate(-38, -37.5)" d="M 0.5 0 C 25.5169 0 50.4831 0 75.5 0 C 75.5 25.0169 75.5 50.0338 75.5 75 C 50.5338 75 25.5169 75 0.5 75 C 0.5 49.9325 0.5 24.9662 0.5 0 Z M 67.5999 39.7029 C 66.0807 36.9683 64.0044 35.0945 61.0165 34.4362 C 58.8896 33.9298 56.7627 33.9298 54.6357 34.3856 C 47.7485 35.8035 44.8113 44.1087 49.2677 49.6286 C 50.8376 51.553 52.9139 52.7178 55.0915 53.7306 C 57.0159 54.6421 58.9909 55.503 60.9153 56.4652 C 62.2319 57.1236 62.789 58.339 62.6371 59.8076 C 62.4851 61.2762 61.4723 62.0864 60.2063 62.5422 C 57.3704 63.555 54.0787 62.6435 52.1543 60.2633 C 51.7492 59.7569 51.344 59.1999 50.9389 58.6428 C 49.0145 59.7569 47.1408 60.8204 45.267 61.9345 C 46.4318 64.2134 48.0523 66.0365 50.2806 67.2519 C 54.0787 69.3282 58.0793 69.632 62.1813 68.6192 C 64.8653 67.9608 67.1442 66.5935 68.5621 64.1121 C 71.1955 59.4024 69.6762 53.528 65.0172 50.6415 C 62.9409 49.3754 60.6114 48.5145 58.4338 47.4004 C 57.3704 46.8433 56.2562 46.3369 55.3447 45.628 C 53.7242 44.3113 54.028 41.6779 55.8511 40.6651 C 57.6236 39.6523 60.105 40.26 61.4723 42.0324 C 61.7762 42.3869 61.9787 42.792 62.2826 43.1972 C 64.0044 42.0324 65.7768 40.8677 67.5999 39.7029 Z M 20.2502 62.6941 C 21.263 64.8717 22.7316 66.5935 24.8079 67.7076 C 27.4919 69.1762 30.4291 69.4294 33.417 68.9737 C 36.1009 68.5685 38.3292 67.3531 39.7978 64.9223 C 41.0132 62.8967 41.3677 60.6685 41.3677 58.2883 C 41.3677 50.5908 41.3677 42.8933 41.3677 35.1958 C 41.3677 34.9932 41.3677 34.74 41.3677 34.4868 C 38.9875 34.4868 36.7086 34.4868 34.3285 34.4868 C 34.3285 34.7907 34.3285 35.0439 34.3285 35.3477 C 34.3285 42.944 34.3285 50.4895 34.3285 58.0858 C 34.3285 58.7947 34.2779 59.5544 34.1766 60.2633 C 33.974 61.4281 33.3663 62.289 32.2016 62.6435 C 30.024 63.3018 28.2515 62.6435 26.9855 60.7698 C 26.6816 60.2633 26.3778 59.7569 26.0233 59.2505 C 24.0483 60.4153 22.1745 61.5294 20.2502 62.6941 Z" stroke-linecap="round" />
</g>
</g>
</g>
</svg>

<svg xmlns="http://www.w3.org/2000/svg" width="1080" height="1080" xml:space="preserve"><g><rect style="stroke:none;stroke-width:1;stroke-dasharray:none;stroke-linecap:butt;stroke-dashoffset:0;stroke-linejoin:miter;stroke-miterlimit:4;fill:#fff;fill-rule:nonzero;opacity:1" vector-effect="non-scaling-stroke" x="-50" y="-50" rx="0" ry="0" width="100" height="100" transform="translate(89.31 89.31)"/><path style="stroke:none;stroke-width:1;stroke-dasharray:none;stroke-linecap:butt;stroke-dashoffset:0;stroke-linejoin:miter;stroke-miterlimit:4;fill:#f7e025;fill-rule:nonzero;opacity:1" vector-effect="non-scaling-stroke" transform="translate(25.48 32.25) scale(13.54)" d="M.5 0h75v75H.5V0Zm67.1 39.703c-1.52-2.735-3.596-4.609-6.583-5.267-2.127-.506-4.254-.506-6.381-.05-6.888 1.417-9.825 9.723-5.368 15.243 1.57 1.924 3.646 3.089 5.824 4.102 1.924.911 3.899 1.772 5.823 2.734 1.317.659 1.874 1.874 1.722 3.343-.152 1.468-1.165 2.278-2.43 2.734-2.837 1.013-6.128.102-8.053-2.279a44.957 44.957 0 0 1-1.215-1.62c-1.925 1.114-3.798 2.177-5.672 3.291 1.165 2.28 2.785 4.103 5.014 5.318 3.798 2.076 7.798 2.38 11.9 1.367 2.684-.658 4.963-2.025 6.381-4.507 2.633-4.71 1.114-10.584-3.545-13.47-2.076-1.267-4.406-2.128-6.583-3.242-1.064-.557-2.178-1.063-3.09-1.772-1.62-1.317-1.316-3.95.507-4.963 1.773-1.013 4.254-.405 5.621 1.367.304.355.507.76.81 1.165a242.553 242.553 0 0 1 5.318-3.494ZM20.25 62.694c1.013 2.178 2.482 3.9 4.558 5.014 2.684 1.468 5.621 1.721 8.609 1.266 2.684-.406 4.912-1.62 6.38-4.052 1.216-2.025 1.57-4.253 1.57-6.634V34.486H34.33V58.087c0 .709-.051 1.468-.152 2.177-.203 1.165-.81 2.026-1.975 2.38-2.178.659-3.95 0-5.216-1.873-.304-.507-.608-1.013-.963-1.52a581.85 581.85 0 0 0-5.773 3.444Z"/></g></svg>
